X:1
T:The Ships Glide in at the Harbor’s Mouth
T:Grace Wilbur Conant, 1913
T:The Ships Glide in at the Harbor’s Mouth
T:Public Domain
T:Public Domain
C:Grace Wilbur Conant, 1913
Z:Public Domain
%%score ( 1 2 ) ( 3 4 )
L:1/8
M:6/8
K:C
V:1 treble 
V:2 treble 
V:3 bass 
V:4 bass 
V:1
 C | [CE]2 [CE] [B,F]>[B,E][B,D] | [CG]2 [CG] [CA]>[CG][CF] | (E>F)[CG] [B,E]2 [B,D] | %4
w: 1.~The|glide in at the har-|bor’s mouth, And the ships|sail * out to sea;|
w: 2.~The|vest waves in the breez-|y morn, And the men|go * forth to reap;|
 C3- C2 C/[CD]/ | [CE]2 [CE] [B,F]>[B,E][B,D] | [CG]2 G [GA]2 [GA] | [G-B]>[Gc][Gd] [^FB]2 [FA] | %8
w: the * wind that|the sun- ny south Is|swe- et as sweet|be. * There’s a world|
w: e * full- ness|the tas- seled co- rn,|Whe- ther we wake|sleep. * A- nd far|
 [DG]3- [DG]2 [DG]/[DG]/ | [FA]>[FA][FA] [Fc]>[FB][FA] | [EB]2 [EG] E2 [B,G]/[B,G]/ | %11
w: of * toil and|a world of pain, And a|wo- rld of trou- ble|
w: on * the hills|by feet un- trod There are|blos- soms that sce- nt|
 [CF][CF][CG] [CA][CF][CE] | ([B,-E]3 [B,D]2) [DG] | [Gc]>[GB][Gc] [^Ge][Gd][Gc] | %14
w: care, But O in a world|where * our|Fa- ther reigns, There is glad-|
w: air, For O in this world|of * our|Fa- ther, God, There is beau-|
 [Ac]2 [Ac] [AB]2 [^DA]/[DA]/ | [EA]2 [EG] [Bd]2 [Be] | [Gc]6 |] %17
w: ness ev- ery- where! *|||
w: ty ev- ery- where! *|||
V:2
 C | x6 | x6 | C2 x4 | C3- C2 C/ x/ | x6 | x2 G x3 | x6 | x6 | x6 | x3 E2 x | x6 | x6 | x6 | x6 | %15
w: ships|||And|sweeps * from||can||||and|||||
w: har-|||Th-|comes * to||or||||the|||||
 x6 | x6 |] %17
w: ||
w: ||
V:3
 [C,E,] | [C,G,]2 [C,G,] [D,G,]>[E,G,][F,G,] | [E,G,]2 [E,G,] F,>[E,G,][D,A,] | %3
 G,2 [E,G,] G,2 [G,,F,] | [C,E,]3- [C,E,]2 [C,E,]/[C,F,]/ | [C,G,]2 [C,G,] [D,G,]>[E,G,][F,G,] | %6
 [E,G,]2 [E,C] [_E,C]2 [E,C] | [D,-D]>[D,D][D,B,] [D,D]2 [D,C] | [G,B,]3- [G,B,]2 [G,B,]/[G,B,]/ | %9
 [G,C]>[G,C][G,C] [G,E]>[G,D][G,C] | [G,B,]2 B, [G,B,]2 [E,G,]/[E,G,]/ | %11
 [D,A,][D,A,][D,G,] [D,F,][D,A,][D,G,] | [G,,F,]3- [G,,F,]2 [F,B,] | %13
 [E,C]>[E,C][E,C] [E,C][E,C][E,C] | [F,C]2 [F,D] [^F,^D]2 [F,B,]/[F,B,]/ | %15
 [G,C]2 [G,C] [G,F]2 [G,,F] | [C,E]6 |] %17
V:4
 x | x6 | x3 F,3/2 x3/2 | G,2 G,2 x2 | x6 | x6 | x6 | x6 | x6 | x6 | x2 B, x3 | x6 | x6 | x6 | x6 | %15
 x6 | x6 |] %17

